!!!!SEGMENT: pl-wumfc--n42963_grossmann-ludwik--cracovienne.krn
!!!cenid: 18xx:4167
!!!COM: Grossmann, Ludwik
!!!COM-rismID: pe30020193
!!!CDT:
!!!CNT:
!!!OTL: Cracovienne
!!!PDT: 1888
!!!AGN:
!!!SMS-siglum: PL-Wumfc
!!!SMS-shelfmark: N42963
!!!SMS-shelfwork: W
!!!SMS-variant:
!!!SMS-altvar:
!!!NIFC-rismSourceID: 1001165770
!!!NIFC-rismChildID: 1001165770
!!!NIFC-islandoraID: pl-wumfc:5584
!!!URL-pdf-islandora: https://repozytorium.nifc.pl/islandora/object/pl-wumfc%3A5584/datastream/PDF/view
!!!URL-scan: https://polish.musicsources.pl/pl/lokalizacje/galeria/druki-muzyczne/12415/1 @EN{Scan on Polish Music Sources Website} @PL{Skany w portalu Dziedzictwo Muzyki Polskiej w otwartym dostępie}
!!!ONB-nifc:
!!!AIN: 2 piano
!!!key: D-
**kern	**kern	**dynam
*part2	*part1	*part1
*staff2	*staff1	*
*I"Pianoforte	*I"PIANO.	*
*	*I'pf	*
*Ipiano	*Ipiano	*
*ICklav	*ICklav	*
*clefF4	*clefG2	*
*k[b-e-a-d-g-]	*k[b-e-a-d-g-]	*
*D-:	*D-:	*
*M2/4	*M2/4	*
=1	=1	=1
!	!LO:TX:a:B:t=Allegretto	!
!	!LO:TX:a:B:t=Allegretto.	!
8DD-'\L 8D-	2r	.
8F'\ 8A-	.	.
8E-'\ 8G-	.	.
8AA-'\J 8A-	.	.
=2	=2	=2
8D-'\L 8F	2r	.
8F'\ 8A-	.	.
8E-'\ 8G-	.	.
8AA-'\J 8A-	.	.
=3||	=3||	=3||
8D-'\L 8F	(8.A-/L	.
8F'\ 8A-	.	.
.	16d-/K	.
8E-'\ 8G-	8.c/	.
8AA-'\J 8A-	.	.
.	16e-/Jk)	.
=4	=4	=4
8D-'\L 8F	(8d-/	.
8F'\	4A-^>/	.
8E-'\ 8G-	.	.
8AA-'\J 8A-	16B-/LL	.
.	16c/JJ)	.
!LO:LB:g=original	!LO:LB:g=original	!
=5	=5	=5
8D-'\L 8F	8d-/L	>
8E-'\ 8G-	8c/	.
8En'\ 8Gn	8.B-/	.
8F'\J	.	.
.	16An/Jk	]]
=6	=6	=6
(4F-X\	(16c/LL	.
.	16B-/JJ	.
.	4B-/)	.
8F-\L) 8A-X	.	.
8BB-\J	8B-/	.
=7	=7	=7
8E-'\L 8G-	8.B-/L	.
8G-'\J 8B-	.	.
.	16e-/Jk	.
8F'\L 8A-	8.dn/L	.
8BB-'\J 8B-	.	.
.	16f/Jk	.
=8	=8	=8
8E-'\L 8G-	(8e-/	.
8G-'\	4B-/	.
8F'\ 8A-	.	.
8BB-'\J 8B-	16e-/LL	.
.	16f/JJ)	.
=9	=9	=9
!	!LO:TX:b:t=poco rit.	!
8E-\L 8G-	8g-/L	>
8F\ 8A-	8f/J	.
8G-\ 8B-	8e-/L	.
8AA-\J 8G-	(16c/L 16e-	.
.	16f/JJ)	]]
!LO:LB:g=original	!LO:LB:g=original	!
=10	=10	=10
(4D-\ 4F	4A-/ 4d-X	.
8DD-'/)	8r	.
8r	8A-/ 8a-	.
=11||	=11||	=11||
*	*^	*
8DD-'/L 8D-	(8.A-/L 8.a-	8r	<
8D-'/J 8F	.	8d-\ 8f	.
.	16d-/Jk 16dd-	.	.
8E-'/L 8G-	8.c/L 8.cc	8r	.
8AAA-'/J 8AA-	.	8e-\ 8g-	.
.	16e-/Jk) 16ee-	.	.
=12	=12	=12	=12
8DD-'/L 8D-	8d-/ 8a- 8dd-	4ryy	.
8D-'/ 8F	4A-^/ 4a-	.	.
8E-'/ 8G-	.	(4c\	p
8AAA-'/J 8AA-	16B-/LL 16b-	.	.
.	16c/JJ 16cc	.	.
*	*v	*v	*
=13	=13	=13
8DD-\L 8D-	8d-/L) 8f 8dd-	.
8E-\ 8G-	(<8c/ 8cc	.
8En\ 8Gn	8.B-/ 8.b-	.
8F\J 8An	.	.
.	16a-/Jk	.
!LO:LB:g=original	!LO:LB:g=original	!
=14	=14	=14
*^	*	*
4B-/	8G-\L	16c/LL 16cc	.
.	.	16b-/JJ)	.
.	8GG-X\J	4b-\	.
4B-/	8F\L 8A-X	.	.
.	8BBB-\J 8BB-	8b-\	.
*v	*v	*	*
=15	=15	=15
*	*^	*
8EE-'/L 8E-	(8.B-/L 8.b-	8r	.
8G-'/ 8B-	.	8e-\ 8g-	.
.	16e-/Jk 16ee-	.	.
8F/ 8A-	8.dn/L 8.ddn	8r	.
8BBB-'/J 8BB-	.	8a-\ 8b-	.
.	16f/Jk) 16ff	.	.
*	*v	*v	*
=16	=16	=16
8EE-'\L 8E-	8e-'/ 8ee-	.
8G-'\ 8B-	4b-^\	.
8F'\ 8A- 8B-	.	.
8BB-'\J 8B-	(16e-/LL 16b- 16ee-	.
.	16f/JJ) 16b- 16ff	.
=17	=17	=17
*	*^	*
8EE-'\L 8BB- 8E-	8g-\L 8b- 8gg-	4ryy	.
8F'\ 8A-	8f\J 8a- 8ff	.	.
8G-'\ 8B-	8ee-/L	8e-\L 8g-	.
8AA-'\J 8E- 8A-	(16ee-/L	8g-\J 8cc	.
.	16ff/JJ)	.	.
*	*v	*v	*
=18	=18	=18
(4D-\ 4A-	4f/ 4dd-X	.
8DD-'/)	4r	.
8r	.	.
!LO:PB:g=original	!LO:PB:g=original	!
=19||	=19||	=19||
*k[b-e-a-d-]	*k[b-e-a-d-]	*
2AA-^>/ 2E-	8.A-/L 8.c	.
.	16B-/Jk 16d-	.
.	8c'/L 8e-	.
.	16c/L 16e-	.
.	16Bn/JJ 16dn	.
=20	=20	=20
4AA-/ 4E-	8c'/ 8e-	.
.	8qf/	.
.	(16c/LL 16e-	.
.	16Bn/JJ) 16dn	.
4AA-/ 4E-	8c'/L 8e-	.
.	8A-'/J 8c	.
=21	=21	=21
*^	*	*
(4En/	2AA-\	8.G/L 8.B-X	p
.	.	16A-/Jk 16c	.
4F/	.	8B-/L 8d-X	.
.	.	(8qe-/	.
.	.	16B-/L) 16d-	.
.	.	16A-/JJ 16c	.
=22	=22	=22	=22
4G/	2AA-\	8B-/ 8d-	.
.	.	(8qe-/	.
.	.	16B-/LL) 16d-	.
.	.	16A-/JJ 16c	.
4E-X/)	.	8B-/L 8d-	.
.	.	8G/J 8B-	.
*v	*v	*	*
=23	=23	=23
8FF'^/L 8F	8.A-/L	.
8DDn'^/ 8Dn	.	.
.	16c/K	.
8GG'/ 8G	8B-/	.
8EE-'/J 8E-	8G/J 8e-	.
=24	=24	=24
8FF'/L 8F	8.B-/L 8.dn	.
8AA-'/ 8A-	.	.
.	16B-/K 16f	.
8GG'/ 8G	8B-/ 8e-	.
8BB-'/J 8B-	8e-/J 8g	.
!LO:LB:g=original	!LO:LB:g=original	!
=25	=25	=25
8A-\	8c/L 8e- 8f	.
4BBB-/ 4BB-	8c/ 8f 8a-	<
.	8B-/ 8dn 8g	.
8BBB-/ 8BB-	8A-/J 8c 8f	[[
=26	=26	=26
*^	*^	*
8EE-X/ 8E-	2EE-^^\	2e-/	8G\L	.
(8C\L	.	.	(8An\	.
8D-X\	.	.	8B-\	.
8E-\J)	.	.	8G\J)	.
*	*	*v	*v	*
=27	=27	=27	=27
8r	4AA-\ 4E-	8.c/L 8.a- 8.cc	ff
8e-^/	.	.	.
.	.	16b-/Jk 16dd-	.
8r	4AA-\ 4E-	8cc\L 8ee-	.
.	.	(8qff/	.
8e-^/	.	(16cc\L) 16ee-	.
.	.	16bn\JJ) 16ddn	.
=28	=28	=28	=28
8r	4AA-\ 4E-	8cc\L 8ee-	.
.	.	(8qff/	.
8e-^/	.	(16cc\L) 16ee-	.
.	.	16bn\JJ) 16ddn	.
8r	4AA-\ 4E-	8cc\L 8ee-	.
8e-^/	.	8a-\J 8cc	.
=29	=29	=29	=29
*	*ped	*	*
8r	[2AA-\ [2E-	8.g/L 8.b-X	.
(8en/	.	.	.
.	.	16a-/Jk 16cc	.
8r	.	8b-\L 8dd-X	.
.	.	(8qee-/	.
[8f/	.	(16b-\L) 16dd-	.
.	.	16a-\JJ) 16cc	.
=30	=30	=30	=30
8f/]	2AA-\] 2E-]	8b-\L 8dd-	.
.	.	(8qee-/	.
4g/	.	(16b-\L) 16dd-	.
.	.	16an\JJ) 16cc	.
.	.	8b-\L 8dd-	.
*Xped	*	*	*
8e-X/)	.	8g\J 8b-	.
!LO:LB:g=original	!	!LO:LB:g=original	!
*v	*v	*	*
=31	=31	=31
8FF/L 8F	8.c/L 8.a-X	.
8FF-X/ 8F-X	.	.
.	16d-/Jk 16b-	.
8EE-/ 8E-	8c/L 8a- 8cc	.
8CC/J 8C	8e-/J 8a- 8ee-	.
=32	=32	=32
8D-/L 8Fn	8.f/L 8.b-	.
8C/ 8F	.	.
.	16c/Jk 16an 16cc	.
8BB-/ 8F	8d-/L 8b- 8dd-	.
8AA-/J 8F	8f/J 8b- 8ff	.
=33	=33	=33
8GG/L 8G	8e-\L 8b- 8ee-	<
!	!LO:TX:a:t=rit.	!
8BB-/ 8G	8en\ 8dd- 8een	.
8AA-/ 8A-	8f\ 8dd- 8ff	.
8EE-/J 8E-	8g\J 8dd- 8gg	[[
=34	=34	=34
*	*^	*
!	!LO:TX:a:B:t=Lento	!	!
!	!LO:TX:b:i:t=lento	!	!
4FF;</ 4F	4cc;\ 4aa-	4a-\	ff
4C;<\ 4B-	8.a-;/L	4en\	pp
.	16g/Jk	.	.
*	*v	*v	*
=35	=35	=35
!	!LO:TX:b:i:t=a tempo	!
!	!LO:TX:a:B:t=Allegretto	!
4D-\ 4A-	8e-X/L 8g	.
.	8d-/ 8f	.
(8AAn\L 8G-X	8c/ 8e-	.
8BB-\J) 8F	8B-/J 8d-	.
=36	=36	=36
*^	*	*
8F/	8C\L	(16c/LL	.
.	.	16B-/J)	.
4F/	[8D-\J	8f/J	.
.	(16D-\LL]	(8F/L	.
.	16C\	.	.
8r	16BB-\	8G/J)	.
.	16E-\JJ)	.	.
!LO:LB:g=original	!LO:LB:g=original	!LO:LB:g=original	!
*v	*v	*	*
=37	=37	=37
*	*^	*
8C\ 8E-	8A-'/L	4ryy	.
8r	(16A-/L	.	.
.	16c/JJ)	.	.
8EE-/L 8E-	8B-'/L	8G\L	.
8EE-/J 8D-X	(16B-/L	8G\J	.
.	16e-/JJ)	.	.
*	*v	*v	*
=38	=38	=38
*^	*	*
8C/	8AA-\	8A-/	.
8r	4.ryy	8r	.
8AA-^\ 8E- 8A-	.	8a-^\ 8cc 8ee- 8aa-	.
8r	.	8r	.
*v	*v	*	*
*	*clefF4	*
=39||	=39||	=39||
*	*^	*
2r	8c'/L	4r	p
.	8c'/J	.	.
.	8c'/L	8Bn\L	.
.	8c'/J	8B\J	.
=40	=40	=40	=40
4r	8c/L	8B-X\L	.
.	8c/J	8B-\J	<
(16En\LL	8c/L	(16G\LL	.
16F\J)	.	16A-\J)	.
8G\J	8c/J	8B-\J	.
=41	=41	=41	=41
8F\L	8c/L	8A-\L	[
8F\J	8c/J	8A-\J	.
8Dn\L	8c/L	8F\L	.
8D\J	8c/J	8F\J	.
=42	=42	=42	=42
8En\L	8c/L	8G\L	.
8E\J	8c/J	8G\J	.
16C\LL	8c/L	(16En\LL	.
16D-\J	.	16F\J)	.
8E\J	8c/J	8G\J	.
!LO:LB:g=original	!LO:LB:g=original	!LO:LB:g=original	!
=43	=43	=43	=43
!	!LO:TX:b:t=poco	!	!
2r	8d-X'/L	4r	.
.	8d-'/J	.	.
.	8d-'/L	8c\L	<
.	8d-'/J	8c\J	.
=44	=44	=44	=44
4r	8d-/L	8c-X\L	.
.	8d-/J	8c-\J	.
(16F\LL	8d-/L	(16A-\LL	<
16G-X\J	.	16B-\J)	.
8A-\J)	8d-/J	8c-\J	.
*	*v	*v	*
=45	=45	=45
!	!LO:TX:b:t=rit.	!
8G-X\L	8B-\L 8d-	[
8G-\J	8B-\J 8d-	.
8E-\L	8B--\L 8d-	.
[8E-\J	8B--\J 8d-	.
=46	=46	=46
*^	*	*
4E-/_	8AA-\L	8A-\L 8d-	>
.	8AA-\J	8A-\J 8d-	.
16E-/LL]	4AA-\	8G-X\L 8cn	.
16Dn/J	.	.	.
8E-/J	.	8G-\J 8c	]]
*v	*v	*	*
=47||	=47||;	=47||
*k[b-e-a-d-g-]	*k[b-e-a-d-g-]	*
8DD-/L 8D-X	8F^\ 8A- 8d-	.
8F^/ 8A-	8r	.
8E-^/ 8G-	4r	.
8AA-^/J 8A-	.	.
=48	=48	=48
8D-'\L 8F	2r	.
8F'\ 8A-	.	.
8E-'\ 8G-	.	.
8AA-'\J 8A-	.	.
!LO:LB:g=original	!LO:LB:g=original	!
*	*clefG2	*
=49||	=49||	=49||
8D-'\L 8F	(8.A-/L	.
8F'\ 8A-	.	.
.	16d-/K	.
8E-'\ 8G-	8.c/	.
8AA-'\J 8A-	.	.
.	16e-/Jk	.
=50	=50	=50
8D-'\L 8F	(8d-/)	.
8F'\	4A-/)	.
8E-'\ 8G-	.	.
8AA-'\J 8A-	(16B-/LL	.
.	16c/JJ)	.
=51	=51	=51
8D-'\L 8F	8d-/L	.
8E-'\ 8G-	8c/	.
8En'\ 8Gn	8.B-/	.
8F'\J	.	.
.	16An/Jk	.
=52	=52	=52
(4G-X\	(16c/LL	.
.	16B-/JJ)	.
.	4B-/	.
8F\L) 8A-X	.	.
8BB-\J	8B-/	.
=53	=53	=53
8E-'\L 8G-	(8.B-/L	.
8G-'\ 8B-	.	.
.	16e-/K	.
8F'\ 8A-	8.dn/	.
8BB-'\J 8B-	.	.
.	16f/Jk)	.
=54	=54	=54
8E-'\L 8G-	(8e-/	.
8G-'\J	4B-^>/)	.
8F'\L 8A-	.	.
8BB-'\J 8B-	(16e-/LL	.
.	16f/JJ)	.
!LO:LB:g=original	!LO:LB:g=original	!
=55	=55	=55
*	*^	*
!	!LO:TX:b:t=poco rit.	!	!
8E-'\L 8G-	8g-/L	4.ryy	>
8F'\ 8A-	8f/J	.	.
8G-'\ 8B-	8e-/L	.	.
8AA-'\J 8G-	(16e-/L	8c\	.
.	16f/JJ)	.	.
*	*v	*v	*
=56	=56	=56
(4D-\ 4F	4A-/ 4d-X	]
8DD-/)	8r	.
8r	8A-/ 8a-	.
=57||	=57||	=57||
*	*^	*
8DD-'/L 8D-	(8.A-/L 8.a-	8r	mf
8D-'/ 8F	.	8d-\ 8f	.
.	16d-/Jk 16dd-	.	.
8E-'/ 8G-	8.c/L 8.cc	8r	.
8AAA-'/J 8AA-	.	8e-\ 8g-	.
.	16e-/Jk) 16ee-	.	.
=58	=58	=58	=58
8DD-'/L 8D-	8d-/ 8f 8dd-	4r	.
8D-'^>/ 8F	4A-^/ 4a-	.	.
8E-'/ 8G-	.	4c\	p
8AAA-'/J 8AA-	(16B-/LL 16b-	.	.
.	16c/JJ) 16cc	.	.
*	*v	*v	*
=59	=59	=59
8DD-\L 8D-	(8d-/L 8f 8dd-	.
8E-\ 8G-	8c/ 8cc	.
8En\ 8Gn	8.B-/ 8.b-	.
8F\J 8An	.	.
.	16an/Jk)	.
=60	=60	=60
*^	*	*
4B-/	8G-X\L	(16c/LL 16cc	.
.	.	16b-/JJ)	.
.	8GG-\J	4b-\	.
4B-/	8F\L 8A-X	.	.
.	8BBB-\J 8BB-	8b-\	.
!	!LO:LB:g=original	!	!LO:LB:g=original
*v	*v	*	*
=61	=61	=61
*	*^	*
8EE-'/L 8E-	8.B-/L 8.b-	8r	.
8G-'/J 8B-	.	8e-\ 8g-	.
.	16e-/Jk 16ee-	.	.
!	!LO:TX:t=P:problem:LO:N:vis=8	!	!
8F'/L 8A-	8.dn/L 8.ddn	8r	.
8BBB-'/J 8BB-	.	8a-\ 8b-	.
.	16f/Jk 16ff	.	.
*	*v	*v	*
=62	=62	=62
8EE-'\L 8E-	8e-/ 8ee-	.
8G-'\ 8B-	4b-\	.
8F'\ 8A- 8B-	.	.
8BB-'\J 8B-	(16e-/LL 16b- 16ee-	.
.	16f/JJ) 16b- 16ff	.
=63	=63	=63
8E-\L 8B-	8g-X\L 8ee- 8gg-X	.
8F\ 8A-	8f\ 8dd-X 8ff	.
8G-\ 8B-	8e-\ 8cc 8ee-	.
8Gn\J 8B-	8d-\J 8b- 8dd-	.
=64	=64	=64
8A-/L	8c\L 8a- 8cc	.
8AAA-^/ 8AA-	8b-^\ 8gg- 8bb-	.
8BBB-^/ 8BB-	8a-^\ 8dd- 8aa-	.
8CC^/J 8C	[8a-^\J 8ee- 8gg-	.
=65	=65	=65
*	*^	*
(8DD-\L 8D-	(8dd-/L 8ff	4a-\]	.
8Dn:\ 8fn:	8cc-X/J) 8aa-	.	.
8E-\ 8e-	8gg-/L	8b-\L	.
8G-X\J) 8B-	8ee-/J	8g-\J	.
=66	=66	=66	=66
!	!LO:TX:b:i:t=a piacere	!	!
!LO:TUP:a	!LO:TUP:a	!	!
12F\L 12A- 12d-X	12a-\L 12dd-	2.ryy	.
12F\ 12A- 12d-	12a-\ 12ccn	.	.
12F\J 12A- 12d-	12a-\J 12dd-	.	.
2G-\ 2B- 2d-	2g-\ 2b- [2ee-	.	.
4AA-;\ 4E- 4c	8ee-;/L]	4g-\ 4a-	.
.	8ff/J	.	.
!LO:LB:g=original	!LO:LB:g=original	!	!
*	*v	*v	*
=67	=67	=67
!	!LO:TX:a:B:t=Allegretto	!
!	!LO:TX:a:B:t=Tempo I.	!
8DD-^>/ 8D-	8d-/ 8f 8a- 8dd-	.
8F'\L 8A-	8r	pp
8E-'\ 8G-	8r	.
8AA-'\J 8A-	8A-'/ 8c	.
=68	=68	=68
!	!LO:TX:b:t=sempre sotto voce	!
8D-'\L 8F	8A-'/L 8d-	.
8F'\ 8A-	8A-'/J 8d-	.
8E-'\ 8G-	8r	.
8AA-'\J	8A-'/ 8c	.
=69	=69	=69
8D-'\L 8F	8A-/L 8d-	.
!	!	!LO:HP:t=diminuendo
8F'\ 8A-	8A-/J 8d-	>
8E-'\ 8G-	8r	.
8AA-'\J	8A-/ 8d-	.
=70	=70	=70
8D-'\L 8F	8A-/L 8d-	.
8D-'\J 8F	8A-/J 8d-	.
8r	8r	.
8D-\ 8F	8A-/ 8d-	ppp
=71	=71	=71
8BB-'/L 8En	8Gn'/L 8d-	.
8BB-'/J 8E	8G'/J 8d-	.
8r	8r	.
8BB-'/ 8E	8G'/	.
=72	=72	=72
8AA-'/L 8F	8A-'/L	.
8AA-'/J 8F	8A-'/J	.
8r	8r	.
8AA-'/ 8F	8A-'/	.
!LO:LB:g=original	!LO:LB:g=original	!
=73	=73	=73
8AA-/ 8E-	8G-/ 8B-X	ppp
8r	8r	.
8AA-'/ 8E-	8A-'/ 8c	.
8r	8r	.
=74	=74	=74
4D-\ 4F	4A-/ 4d-	.
8.r	8.r	.
16D-\ 16A-	16f\ 16dd- 16ff	.
=75	=75	=75
!	!LO:TX:b:t=trem.	!
8D-\ 8A-	[2f\ [2dd- [2ff	.
(32D-/LLL	.	.
32DD-/	.	.
32D-/	.	.
32DD-/JJJ	.	.
32D-/LLL	.	.
32DD-/	.	.
32D-/	.	.
32DD-/	.	.
32D-/	.	.
32DD-/	.	.
32D-/	.	.
32DD-/JJJ)	.	.
=76	=76	=76
*tremolo	*	*
(32D-;/LLL	2f;\_ 2dd-_ 2ff_	.
32DD-/	.	.
32D-/	.	.
32DD-/	.	.
32D-/	.	.
32DD-/	.	.
32D-/	.	.
32DD-/	.	.
32D-/	.	.
32DD-/	.	.
32D-/	.	.
32DD-/	.	.
32D-/	.	.
32DD-/	.	.
32D-/	.	.
32DD-/JJJ	.	.
=77	=77	=77
8DD-/) 8D-	8f\] 8dd-] 8ff]	.
8r	8r	.
4r	4r	.
==	==	==
*-	*-	*-
!!!RDF**kern: > = above
!!!RDF**kern: < = below
!!!system-decoration: [(s1,s2)]
!!!ENC: Filip Voros
!!!END: 2022-09-08
!!!ENC: Julita Ruszuk
!!!END: 2022-09-21
!!!YEC: Copyright 2022 Narodowy Instytut Fryderyka Chopina (https://polishscores.org)
!!!YEM: License CC-BY-4.0 (https://creativecommons.org/licenses/by/4.0)
